arcticons-dark/symbolic/apps/signal-desktop-symbolic.svg

<?xml version="1.0" encoding="UTF-8" standalone="no"?>
<svg
   id="Layer_2"
   data-name="Layer 2"
   viewBox="0 0 48 48"
   version="1.1"
   sodipodi:docname="signal-desktop.svg"
   xmlns:inkscape="http://www.inkscape.org/namespaces/inkscape"
   xmlns:sodipodi="http://sodipodi.sourceforge.net/DTD/sodipodi-0.dtd"
   xmlns="http://www.w3.org/2000/svg"
   xmlns:svg="http://www.w3.org/2000/svg">
  <sodipodi:namedview
     id="namedview5"
     pagecolor="#ffffff"
     bordercolor="#666666"
     borderopacity="1.0"
     inkscape:showpageshadow="2"
     inkscape:pageopacity="0.0"
     inkscape:pagecheckerboard="0"
     inkscape:deskcolor="#d1d1d1" />
  <defs
     id="defs1">
    <style
       id="style1">.cls-1{fill:none;stroke:#fff;stroke-width:2px;stroke-linejoin:round;}</style>
  </defs>
  <path
     style="color:#000000;fill:#ffffff;stroke-linejoin:round;-inkscape-stroke:none"
     d="m 23.998047,1.5 c -1.134278,0.00304 -2.267355,0.090715 -3.388672,0.2617187 l 0.300781,1.9765626 C 21.932171,3.5824212 22.964223,3.5029629 23.998047,3.5 c 1.045549,0.00279 2.089224,0.082102 3.123047,0.2382813 L 27.419922,1.7617187 C 26.288981,1.5908678 25.145722,1.5030565 24.001953,1.5 a 1.0001,1.0001 0 0 0 -0.0039,0 z m 5.332031,0.6289063 -0.480469,1.9414062 c 2.041507,0.5036474 3.994189,1.3186915 5.789063,2.4140625 L 35.681641,4.7773437 C 33.712259,3.5754747 31.570071,2.681521 29.330078,2.1289063 Z M 18.6875,2.1464844 C 16.436475,2.6830109 14.28395,3.5719631 12.308594,4.7773437 L 13.351563,6.484375 C 15.147916,5.3882229 17.105301,4.5797047 19.152344,4.0917969 Z M 10.705078,5.8359375 C 8.8515961,7.2049825 7.2183738,8.8486521 5.8613281,10.710938 l 1.6171875,1.177734 C 8.7156319,10.190967 10.204851,8.6933675 11.894531,7.4453125 Z m 26.603516,0.00586 -1.175782,1.6171875 c 1.701803,1.2365287 3.199272,2.7305456 4.439454,4.4296876 L 42.1875,10.710938 C 40.824472,8.8434866 39.178968,7.2008101 37.308594,5.8417969 Z m 5.927734,6.4707031 -1.712891,1.035156 c 1.088185,1.800377 1.895768,3.755122 2.394532,5.798828 l 1.943359,-0.472656 c -0.546952,-2.241159 -1.43168,-4.387008 -2.625,-6.361328 z M 4.8671875,12.328125 C 3.6633143,14.29356 2.7732441,16.434293 2.2285156,18.673828 L 4.171875,19.146484 C 4.6675084,17.108793 5.4768946,15.161342 6.5722656,13.373047 Z M 1.7617187,20.570312 C 1.590928,21.704458 1.5030716,22.851118 1.5,23.998047 a 1.0001,1.0001 0 0 0 0,0.01758 c 0.017008,1.147884 0.1180736,2.29272 0.3027344,3.425781 L 3.7773438,27.119141 C 3.6088433,26.085237 3.5159,25.039604 3.5,23.992187 c 0.00328,-1.045764 0.082553,-2.088927 0.2382813,-3.123046 z m 44.4765623,0.04297 -1.976562,0.292969 c 0.151744,1.026888 0.230697,2.063551 0.238281,3.101562 -0.0033,1.045765 -0.08255,2.088928 -0.238281,3.123047 l 1.976562,0.298828 C 46.409072,26.295542 46.496928,25.148882 46.5,24.001953 a 1.0001,1.0001 0 0 0 0,-0.002 1.0001,1.0001 0 0 0 0,-0.002 1.0001,1.0001 0 0 0 0,-0.002 1.0001,1.0001 0 0 0 0,-0.0039 c -0.0083,-1.130981 -0.09638,-2.260044 -0.261719,-3.378906 z m -1.527344,7.513672 a 1.0001,1.0001 0 0 0 -0.74414,0.597656 l -2.539063,6.080078 1.039063,0.435547 0.755859,0.460938 c 1.175482,-1.922564 2.040238,-4.015937 2.587891,-6.201172 3.51e-4,-0.0014 0.0016,-0.0025 0.002,-0.0039 0.01284,-0.05126 0.03636,-0.09903 0.04883,-0.150391 a 1.0001,1.0001 0 0 0 -1.150391,-1.21875 z m -4.15625,7.980469 c -1.246555,1.696455 -2.746183,3.192638 -4.445312,4.435547 l 1.181641,1.613281 c 1.863847,-1.363399 3.5076,-3.002367 4.875,-4.863281 z m -5.896484,5.410156 c -1.79261,1.096043 -3.74727,1.90291 -5.791016,2.390625 l 0.464844,1.945313 c 2.248112,-0.536485 4.397277,-1.425217 6.369141,-2.63086 z m -13.769531,2.744141 -0.298828,1.976562 c 1.127543,0.170463 2.265899,0.258263 3.40625,0.261719 a 1.0001,1.0001 0 0 0 0.0078,0 c 1.159388,-0.0034 2.316061,-0.0915 3.462891,-0.261719 l -0.292969,-1.976562 c -1.049007,0.155699 -2.109435,0.234758 -3.169922,0.238281 -1.042298,-0.0032 -2.084642,-0.08248 -3.115234,-0.238281 z"
     id="path1" />
  <path
     style="color:#000000;fill:#ffffff;stroke-linejoin:round;-inkscape-stroke:none"
     d="m 13.648438,41.945312 -2.240235,0.509766 0.44336,1.949219 1.955078,-0.445313 c 1.535983,0.799709 3.140519,1.463543 4.822265,1.88086 l 0.482422,-1.939453 c -1.660135,-0.411955 -3.261022,-1.036652 -4.761719,-1.857422 a 1.0001,1.0001 0 0 0 -0.701171,-0.09766 z"
     id="path2" />
  <path
     style="color:#000000;fill:#ffffff;stroke-linejoin:round;-inkscape-stroke:none"
     d="M 4.0878906,28.925781 2.1523438,29.433594 C 2.5920389,31.112757 3.2690637,32.715422 4.078125,34.25 L 3.6367188,36.154297 5.5839844,36.605469 6.09375,34.40625 A 1.0001,1.0001 0 0 0 5.9960937,33.695312 C 5.1645774,32.190834 4.5233297,30.588691 4.0878906,28.925781 Z"
     id="path3" />
  <path
     style="color:#000000;fill:#ffffff;stroke-linejoin:round;-inkscape-stroke:none"
     d="m 3.2890625,37.871094 -1,4.080078 c -0.1289447,0.519007 -0.129583,1.063142 0,1.582031 a 1.0001,1.0001 0 0 0 0.00391,0.01367 c 0.4458609,1.68066 2.1885455,2.701628 3.8730468,2.271484 6.713e-4,-1.71e-4 0.00128,1.72e-4 0.00195,0 l 4.0703123,-0.998047 -0.4765622,-1.941406 -4.0800782,1 a 1.0001,1.0001 0 0 0 -0.00977,0.002 c -0.641462,0.164246 -1.2680718,-0.203885 -1.4414063,-0.841797 -0.048558,-0.199733 -0.049823,-0.407915 0,-0.607421 a 1.0001,1.0001 0 0 0 0,-0.0039 l 1,-4.080078 z"
     id="path4" />
  <path
     style="color:#000000;fill:#ffffff;stroke-linejoin:round;-inkscape-stroke:none"
     d="M 23.996094,5.4101562 C 9.5850935,5.437311 0.79574695,21.23737 8.1210938,33.5 L 6.546875,40.283203 a 1.0001,1.0001 0 0 0 1.1972656,1.201172 L 14.578125,39.919922 C 24.983175,46.126774 38.575634,40.860084 41.943359,29.130859 45.356304,17.244143 36.364614,5.3579565 23.998047,5.4101562 Z m 0.0059,2 a 1.0001,1.0001 0 0 0 0.002,0 C 35.091433,7.3622006 43.081347,17.921136 40.021484,28.578125 36.961622,39.235114 24.588061,43.948089 15.214844,38.025391 a 1.0001,1.0001 0 0 0 -0.757813,-0.13086 L 8.8554688,39.177734 10.144531,33.636719 A 1.0001,1.0001 0 0 0 10.015625,32.875 C 3.0004095,21.795807 10.888555,7.4335216 24.001953,7.4101562 Z"
     id="path5" />
</svg>

<?xml version="1.0" encoding="UTF-8"?>
<svg id="Layer_2" data-name="Layer 2" version="1.1" viewBox="0 0 48 48" xmlns="http://www.w3.org/2000/svg">
 <defs id="defs4">
  <style id="style2">.cls-1{fill:none;stroke:#fff;stroke-width:2px;stroke-linejoin:round;}</style>
 </defs>
 <path id="path6" d="m23.998 1.5c-1.1343 0.00304-2.2674 0.090715-3.3887 0.26172l0.30078 1.9766c1.022-0.15586 2.0541-0.23532 3.0879-0.23828 1.0455 0.00279 2.0892 0.082102 3.123 0.23828l0.29883-1.9766c-1.1309-0.17085-2.2742-0.25866-3.418-0.26172a1.0001 1.0001 0 0 0-0.0039 0zm5.332 0.62891-0.48047 1.9414c2.0415 0.50365 3.9942 1.3187 5.7891 2.4141l1.043-1.707c-1.9694-1.2019-4.1116-2.0958-6.3516-2.6484zm-10.643 0.017578c-2.251 0.53653-4.4036 1.4255-6.3789 2.6309l1.043 1.707c1.7964-1.0962 3.7537-1.9047 5.8008-2.3926zm-7.9824 3.6895c-1.8535 1.369-3.4867 3.0127-4.8437 4.875l1.6172 1.1777c1.2371-1.6977 2.7263-3.1953 4.416-4.4434zm26.604 0.00586-1.1758 1.6172c1.7018 1.2365 3.1993 2.7305 4.4395 4.4297l1.6152-1.1777c-1.363-1.8675-3.0085-3.5101-4.8789-4.8691zm5.9277 6.4707-1.7129 1.0352c1.0882 1.8004 1.8958 3.7551 2.3945 5.7988l1.9434-0.47266c-0.54695-2.2412-1.4317-4.387-2.625-6.3613zm-38.369 0.015624c-1.2039 1.9654-2.0939 4.1062-2.6387 6.3457l1.9434 0.47266c0.49563-2.0377 1.305-3.9851 2.4004-5.7734zm-3.1055 8.2422c-0.17079 1.1341-0.25865 2.2808-0.26172 3.4277a1.0001 1.0001 0 0 0 0 0.01758c0.017008 1.1479 0.11807 2.2927 0.30273 3.4258l1.9746-0.32227c-0.1685-1.0339-0.26144-2.0795-0.27734-3.127 0.00328-1.0458 0.082553-2.0889 0.23828-3.123zm44.477 0.04297-1.9766 0.29297c0.15174 1.0269 0.2307 2.0636 0.23828 3.1016-0.0033 1.0458-0.08255 2.0889-0.23828 3.123l1.9766 0.29883c0.17079-1.1341 0.25865-2.2808 0.26172-3.4277a1.0001 1.0001 0 0 0 0-2e-3 1.0001 1.0001 0 0 0 0-2e-3 1.0001 1.0001 0 0 0 0-2e-3 1.0001 1.0001 0 0 0 0-0.0039c-0.0083-1.131-0.09638-2.26-0.26172-3.3789zm-1.5273 7.5137a1.0001 1.0001 0 0 0-0.74414 0.59766l-2.5391 6.0801 1.0391 0.43555 0.75586 0.46094c1.1755-1.9226 2.0402-4.0159 2.5879-6.2012 3.51e-4 -0.0014 0.0016-0.0025 2e-3 -0.0039 0.01284-0.05126 0.03636-0.09903 0.04883-0.15039a1.0001 1.0001 0 0 0-1.1504-1.2188zm-4.1562 7.9805c-1.2466 1.6965-2.7462 3.1926-4.4453 4.4355l1.1816 1.6133c1.8638-1.3634 3.5076-3.0024 4.875-4.8633zm-5.8965 5.4102c-1.7926 1.096-3.7473 1.9029-5.791 2.3906l0.46484 1.9453c2.2481-0.53648 4.3973-1.4252 6.3691-2.6309zm-13.77 2.7441-0.29883 1.9766c1.1275 0.17046 2.2659 0.25826 3.4062 0.26172a1.0001 1.0001 0 0 0 0.0078 0c1.1594-0.0034 2.3161-0.0915 3.4629-0.26172l-0.29297-1.9766c-1.049 0.1557-2.1094 0.23476-3.1699 0.23828-1.0423-0.0032-2.0846-0.08248-3.1152-0.23828z" color="#000000" fill="#fff" stroke-linejoin="round" style="-inkscape-stroke:none"/>
 <path id="path8" d="m13.648 41.945-2.2402 0.50977 0.44336 1.9492 1.9551-0.44531c1.536 0.79971 3.1405 1.4635 4.8223 1.8809l0.48242-1.9395c-1.6601-0.41196-3.261-1.0367-4.7617-1.8574a1.0001 1.0001 0 0 0-0.70117-0.09766z" color="#000000" fill="#fff" stroke-linejoin="round" style="-inkscape-stroke:none"/>
 <path id="path10" d="m4.0879 28.926-1.9355 0.50781c0.4397 1.6792 1.1167 3.2818 1.9258 4.8164l-0.44141 1.9043 1.9473 0.45117 0.50977-2.1992a1.0001 1.0001 0 0 0-0.097656-0.71094c-0.83152-1.5045-1.4728-3.1066-1.9082-4.7695z" color="#000000" fill="#fff" stroke-linejoin="round" style="-inkscape-stroke:none"/>
 <path id="path12" d="m3.2891 37.871-1 4.0801c-0.12894 0.51901-0.12958 1.0631 0 1.582a1.0001 1.0001 0 0 0 0.00391 0.01367c0.44586 1.6807 2.1885 2.7016 3.873 2.2715 6.713e-4 -1.71e-4 0.00128 1.72e-4 0.00195 0l4.0703-0.99805-0.47656-1.9414-4.0801 1a1.0001 1.0001 0 0 0-0.00977 2e-3c-0.64146 0.16425-1.2681-0.20388-1.4414-0.8418-0.048558-0.19973-0.049823-0.40792 0-0.60742a1.0001 1.0001 0 0 0 0-0.0039l1-4.0801z" color="#000000" fill="#fff" stroke-linejoin="round" style="-inkscape-stroke:none"/>
 <path id="path14" d="m23.996 5.4102c-14.411 0.027155-23.2 15.827-15.875 28.09l-1.5742 6.7832a1.0001 1.0001 0 0 0 1.1973 1.2012l6.834-1.5645c10.405 6.2069 23.998 0.94016 27.365-10.789 3.4129-11.887-5.5787-23.773-17.945-23.721zm0.0059 2a1.0001 1.0001 0 0 0 2e-3 0c11.087-0.047956 19.077 10.511 16.017 21.168-3.0599 10.657-15.433 15.37-24.807 9.4473a1.0001 1.0001 0 0 0-0.75781-0.13086l-5.6016 1.2832 1.2891-5.541a1.0001 1.0001 0 0 0-0.12891-0.76172c-7.0152-11.079 0.87293-25.441 13.986-25.465z" color="#000000" fill="#fff" stroke-linejoin="round" style="-inkscape-stroke:none"/>
</svg>
